Papirus-Dark/16x16/actions/playlist-generator.svg

<?xml version="1.0" encoding="UTF-8" standalone="no"?>
<svg xmlns="http://www.w3.org/2000/svg" width="16" height="16" viewBox="0 0 16 16">
 <defs>
  <style type="text/css" id="current-color-scheme">
   .ColorScheme-Text { color:#d3dae3; }
  </style>
 </defs>
 <path style="fill:currentColor;opacity:1" class="ColorScheme-Text" d="M 3 1 A 2 2 0 0 0 1 3 A 2 2 0 0 0 3 5 A 2 2 0 0 0 5 3 A 2 2 0 0 0 3 1 z M 11.109375 1 C 10.850375 1.004 10.601969 1.1091688 10.417969 1.2929688 L 6.9179688 4.7929688 L 6.4179688 5.2929688 L 4.4179688 7.2929688 L 2.9179688 8.7929688 L 2.4179688 9.2929688 L 1.2929688 10.417969 C 0.90256875 10.807969 0.90256875 11.442031 1.2929688 11.832031 L 4.1679688 14.707031 C 4.5584688 15.097031 5.1915313 15.097031 5.5820312 14.707031 L 6.7070312 13.582031 L 7.2070312 13.082031 L 10.707031 9.5820312 L 11.207031 9.0820312 L 14.707031 5.5820312 C 15.097031 5.1915312 15.097031 4.5584687 14.707031 4.1679688 L 11.832031 1.2929688 C 11.641031 1.1015687 11.380375 0.99585 11.109375 1 z M 7.625 6.9140625 L 7.6367188 6.9257812 L 9.0742188 8.3632812 L 9.0859375 8.375 L 5.7929688 11.667969 L 5.2929688 12.167969 L 4.875 12.585938 L 3.4140625 11.125 L 3.8320312 10.707031 L 4.3320312 10.207031 L 5.8320312 8.7070312 L 7.625 6.9140625 z"/>
</svg>

<?xml version="1.0" encoding="UTF-8" standalone="no"?>
<!--Created with Inkscape (http://www.inkscape.org/)-->
<svg id="svg3049" xmlns:rdf="http://www.w3.org/1999/02/22-rdf-syntax-ns#" xmlns="http://www.w3.org/2000/svg" height="16" width="16" version="1.1" xmlns:cc="http://creativecommons.org/ns#" xmlns:dc="http://purl.org/dc/elements/1.1/">
 <defs id="defs3051">
 </defs>
 <metadata id="metadata3054">
  <rdf:RDF>
   <cc:Work rdf:about="">
    <dc:format>image/svg+xml</dc:format>
    <dc:type rdf:resource="http://purl.org/dc/dcmitype/StillImage"/>
    <dc:title/>
   </cc:Work>
  </rdf:RDF>
 </metadata>
 <g id="layer1" transform="translate(-421.71 -531.79)">
  <path id="path4141" opacity="1" fill="#d3dae3" style="fill-rendering:auto;text-decoration-fill:#d3dae3;fill:#d3dae3;isolation:auto;mix-blend-mode:normal;shape-rendering:auto;solid-fill:#d3dae3;block-progression:tb;text-decoration-line:none;image-rendering:auto;white-space:normal;text-indent:0;text-transform:none;text-decoration-style:solid" transform="translate(421.71 531.79)" d="m3 1a2 2 0 0 0 -2 2 2 2 0 0 0 2 2 2 2 0 0 0 2 -2 2 2 0 0 0 -2 -2zm8.109 0c-0.259 0.004-0.507 0.1092-0.691 0.293l-3.5 3.5-0.5 0.5-2 2-1.5 1.5-0.5 0.5-1.125 1.125c-0.3904 0.39-0.3904 1.024 0 1.414l2.875 2.875c0.3905 0.39 1.0235 0.39 1.414 0l1.125-1.125 0.5-0.5 3.5-3.5 0.5-0.5 3.5-3.5c0.39-0.3905 0.39-1.0235 0-1.414l-2.875-2.875c-0.191-0.1914-0.452-0.29715-0.723-0.293zm-3.484 5.9141l0.0117 0.0117 1.4375 1.4375 0.0117 0.0117-3.2929 3.293-0.5 0.5-0.418 0.418-1.4609-1.461 0.4179-0.418 0.5-0.5 1.5-1.5 1.793-1.7929z"/>
 </g>
</svg>
